!!!!SEGMENT: pl-wtm--r-1646_stefani-jozef--hold-swej-czci-niosa-rodacy.krn
!!!cenid: 18xx:2043
!!!COM: Stefani, Józef
!!!COM-rismid: pe30024097
!!!CDT: 1800/04/16-1876/03/19
!!!CNT: Polish
!!!OTL: Hołd swej czci niosą rodacy
!!!PDT: 1857
!!!AGN: Secular
!!!SMS-siglum: PL-Wtm
!!!SMS-shelfmark: R 1646
!!!SMS-shelfwork: W
!!!SMS-variant:
!!!SMS-altvar:
!!!NIFC-rismid: 1001114434
!!!URL-scan: http://repozytorium.nifc.pl/skany/pl-wtm-nut--r1646
!!!ONB-nifc:
**kern	**kern	**dynam	**kern	**text	**text	**kern	**text
*part3	*part3	*part3	*part2	*part2	*part2	*part1	*part1
*staff4	*staff3	*	*staff2	*staff2	*staff2	*staff1	*staff1
*I"Piano	*I"Piano	*	*I"Voce	*	*	*I"Voce	*
*>[A,B,B,C,C,D,D,A,B]	*>[A,B,B,C,C,D,D,A,B]	*>[A,B,B,C,C,D,D,A,B]	*>[A,B,B,C,C,D,D,A,B]	*>[A,B,B,C,C,D,D,A,B]	*>[A,B,B,C,C,D,D,A,B]	*>[A,B,B,C,C,D,D,A,B]	*>[A,B,B,C,C,D,D,A,B]
*>A	*>A	*>A	*>A	*>A	*>A	*>A	*>A
*clefF4	*clefG2	*	*clefG2	*	*	*clefG2	*
*k[f#c#]	*k[f#c#]	*	*k[f#c#]	*	*	*k[f#c#]	*
*M3/8	*M3/8	*	*M3/8	*	*	*M3/8	*
*all\right	*all\right	*	*all\right	*	*	*all\right	*
=1	=1	=1	=1	=1	=1	=1	=1
!	!LO:TX:a:t=słowa B. Halperla(?)	!	!	!	!	!	!
!	!LO:TX:a:t=Mazur	!LO:DY:rj	!LO:TX:t=P:problem:brak taktów nr 1-34 w partyturze	!	!	!LO:TX:t=P:problem:brak taktów nr 1-34 w partyturze	!
8dL 8A 8F# 8D\	8dddL 8ff# 8dd'^<\	f	4.ryy	.	.	4.ryy	.
8d 8A 8F# 8D\	8aa 8ff# 8dd'^<\	.	.	.	.	.	.
!LO:TX:t=P:problem:skreślony akord	!LO:SIC:v:n=2:s=8gg#	!	!	!	!	!	!
8dJ 8B 8G#X 8E#X\	8bbJ 8gg 8ee#X 8dd'^<\	.	.	.	.	.	.
=2	=2	=2	=2	=2	=2	=2	=2
*tremolo	*	*	*	*	*	*	*
8dL 8A 8F# 8D\	16.aaLL 16.ff#|\	.	4.ryy	.	.	4.ryy	.
!	!LO:N:vis=16	!	!	!	!	!	!
.	32bbK 32gg|\	.	.	.	.	.	.
8d 8A 8F# 8D\	16.aa 16.ff#|\	.	.	.	.	.	.
!	!LO:N:vis=16	!	!	!	!	!	!
.	32ggJK 32ee|\	.	.	.	.	.	.
8dJ 8A 8F# 8D\	8ff#J 8dd|\	.	.	.	.	.	.
*Xtremolo	*	*	*	*	*	*	*
=3	=3	=3	=3	=3	=3	=3	=3
.	(8qff#/	p	.	.	.	.	.
16AA/	16.ee\LL)	.	4.ryy	.	.	4.ryy	.
16r	.	.	.	.	.	.	.
.	32a|\JJk	.	.	.	.	.	.
8eL 8c# 8A 8G\	8.cc#|\L	.	.	.	.	.	.
8eJ 8c# 8A 8G\	.	.	.	.	.	.	.
.	16ee|\Jk	.	.	.	.	.	.
=4	=4	=4	=4	=4	=4	=4	=4
*^	*	*	*	*	*	*	*
4.D/	8D\L	16.dd\LL|	.	4.ryy	.	.	4.ryy	.
.	.	(32gg\K	.	.	.	.	.	.
.	8d 8A 8F#\	16.ff#\)	.	.	.	.	.	.
.	.	(32bb\JK|	.	.	.	.	.	.
.	8dJ 8A 8F#\	8aa\J)	.	.	.	.	.	.
*v	*v	*	*	*	*	*	*	*
!!LO:LB:g=original
=5	=5	=5	=5	=5	=5	=5	=5
!	!	!LO:DY:rj	!	!	!	!	!
8dL 8A 8F# 8D\	8dddL 8ff# 8dd'^<\	f	4.ryy	.	.	4.ryy	.
8d 8A 8F# 8D\	8aa 8ff# 8dd'^<\	.	.	.	.	.	.
!LO:TX:t=P:problem:skreślony akord	!LO:SIC:v:n=2:s=8gg#	!	!	!	!	!	!
8dJ 8B 8G#X 8E#X\	8bbJ 8gg 8ee#X 8dd'^<\	.	.	.	.	.	.
=6	=6	=6	=6	=6	=6	=6	=6
*tremolo	*	*	*	*	*	*	*
8dL 8A 8F# 8D\	16.aaLL 16.ff#|\	.	4.ryy	.	.	4.ryy	.
.	32bbK 32gg|\	.	.	.	.	.	.
8d 8A 8F# 8D\	16.aa 16.ff#|\	.	.	.	.	.	.
.	32ggJK 32ee|\	.	.	.	.	.	.
8dJ 8A 8F# 8D\	8ff#J 8dd|\	.	.	.	.	.	.
*Xtremolo	*	*	*	*	*	*	*
=7	=7	=7	=7	=7	=7	=7	=7
.	8qff#/	p	.	.	.	.	.
8E 8EE/	16.ee\LL	.	4.ryy	.	.	4.ryy	.
.	32dd#X\JJk	.	.	.	.	.	.
8dL 8B 8G#X 8E\	8.ee\L	.	.	.	.	.	.
8dJ 8B 8G# 8E\	.	.	.	.	.	.	.
.	16b\Jk	.	.	.	.	.	.
=8	=8	=8	=8	=8	=8	=8	=8
!	!LO:TUP:a:problem:łuczek zamiast numeru	!	!	!	!	!	!
8d 8B 8G#X 8E\	24b'\LL	.	4.ryy	.	.	4.ryy	.
.	(24dd\	.	.	.	.	.	.
.	24cc#\JJ)	.	.	.	.	.	.
8c# 8A\	8a/	<	.	.	.	.	.
!	!LO:TUP:a:problem:łuczek zamiast numeru	!	!	!	!	!	!
8r	(24aa\LL	.	.	.	.	.	.
.	24bb\	.	.	.	.	.	.
.	24ccc#\JJ	[	.	.	.	.	.
=9	=9	=9	=9	=9	=9	=9	=9
!	!	!LO:DY:rj	!	!	!	!	!
8dL 8A 8F# 8D\	8ddd^<\L)	f	4.ryy	.	.	4.ryy	.
8d 8A 8F# 8D\	8aa 8ff# 8dd^<\	.	.	.	.	.	.
8dJ 8B 8G\	8bbJ 8gg 8dd^<\	.	.	.	.	.	.
!!LO:LB:g=original
=10	=10	=10	=10	=10	=10	=10	=10
*tremolo	*	*	*	*	*	*	*
8dL 8A 8F# 8D\	16.aaLL 16.ff#\	.	4.ryy	.	.	4.ryy	.
.	32bbK 32gg\	.	.	.	.	.	.
8d 8A 8F# 8D\	16.aa 16.ff#\	.	.	.	.	.	.
!	!LO:N:vis=16	!	!	!	!	!	!
.	32ggJK 32ee\	.	.	.	.	.	.
8dJ 8A 8F# 8D\	8ff#J 8dd\	.	.	.	.	.	.
*Xtremolo	*	*	*	*	*	*	*
=11	=11	=11	=11	=11	=11	=11	=11
.	8qff#/	p	.	.	.	.	.
16AA/	16.ee\LL	.	4.ryy	.	.	4.ryy	.
16r	.	.	.	.	.	.	.
.	32a\JJk	.	.	.	.	.	.
8eL 8c# 8A 8G\	8.cc#\L	.	.	.	.	.	.
8eJ 8c# 8A 8G\	.	.	.	.	.	.	.
.	16ee\Jk	.	.	.	.	.	.
=12	=12	=12	=12	=12	=12	=12	=12
*^	*	*	*	*	*	*	*
4.D/	8D\L	16.dd\LL	.	4.ryy	.	.	4.ryy	.
.	.	(32gg\K	.	.	.	.	.	.
.	8d 8A 8F#\	16.ff#\)	.	.	.	.	.	.
.	.	(32bb\JK	.	.	.	.	.	.
.	8dJ 8A 8F#\	8aa\J)	.	.	.	.	.	.
*v	*v	*	*	*	*	*	*	*
=13	=13	=13	=13	=13	=13	=13	=13
!	!	!LO:DY:rj	!	!	!	!	!
8dL 8A 8F# 8D\	8dddL 8ff# 8dd'^<\	f	4.ryy	.	.	4.ryy	.
8d 8A 8F# 8D\	8aa 8ff# 8dd'^<\	.	.	.	.	.	.
8dJ 8B 8G\	8bbJ 8gg 8dd'^<\	.	.	.	.	.	.
=14	=14	=14	=14	=14	=14	=14	=14
*tremolo	*	*	*	*	*	*	*
8dL 8A 8F# 8D\	16.aaLL 16.ff#\|	.	4.ryy	.	.	4.ryy	.
.	32bbK 32gg\|	.	.	.	.	.	.
8d 8A 8F# 8D\	16.aa 16.ff#\|	.	.	.	.	.	.
.	32ggJK 32ee\|	.	.	.	.	.	.
8dJ 8A 8F# 8D\	8ff#J 8dd\|	.	.	.	.	.	.
*Xtremolo	*	*	*	*	*	*	*
!!LO:LB:g=original
=15	=15	=15	=15	=15	=15	=15	=15
.	(8qff#/	.	.	.	.	.	.
8G 8GG\	16.ee\LL)	.	4.ryy	.	.	4.ryy	.
.	32b\JJk|	.	.	.	.	.	.
8gL 8c# 8A\	8cc#\L|	.	.	.	.	.	.
8gJ 8c# 8A\	(8ee\J	.	.	.	.	.	.
=16	=16	=16	=16	=16	=16	=16	=16
16f# 16d\	16dd\)	.	4.ryy	.	.	4.ryy	.
16r	16r	.	.	.	.	.	.
8d 8D\	8ddd 8ff# 8dd\	.	.	.	.	.	.
8r	8r	.	.	.	.	.	.
=17!|:	=17!|:	=17!|:	=17!|:	=17!|:	=17!|:	=17!|:	=17!|:
*>B	*>B	*>B	*>B	*>B	*>B	*>B	*>B
.	(8qff# 8qdd/	mf	.	.	.	.	.
*^	*	*	*	*	*	*	*
4.AA/	16AA\LL	16.eeLL 16.cc#\)	.	4.ryy	.	.	4.ryy	.
.	(>16A\	.	.	.	.	.	.	.
.	.	32dd#XJJk 32b#X\|	.	.	.	.	.	.
.	16E\	8eeL 8cc#\|	.	.	.	.	.	.
.	16A\	.	.	.	.	.	.	.
.	16E\	(8ccc#J 8ee\|	.	.	.	.	.	.
.	16A\JJ)	.	.	.	.	.	.	.
=18	=18	=18	=18	=18	=18	=18	=18	=18
4.E/	16E\LL	24ccc#LL 24ee\	.	4.ryy	.	.	4.ryy	.
.	.	24ddd 24ff#\)	.	.	.	.	.	.
.	(>16d\	.	.	.	.	.	.	.
.	.	24aa#XJJ 24cc#\|	.	.	.	.	.	.
.	16G#X\	4bb 4dd\|	.	.	.	.	.	.
.	16d\	.	.	.	.	.	.	.
.	16G#\	.	.	.	.	.	.	.
.	16d\JJ)	.	.	.	.	.	.	.
!!LO:LB:g=original
=19	=19	=19	=19	=19	=19	=19	=19	=19
.	.	8qff#/	.	.	.	.	.	.
4.E/	16E\LL	16.ee\LL	.	4.ryy	.	.	4.ryy	.
.	16d\	.	.	.	.	.	.	.
.	.	32dd#X\JJk	.	.	.	.	.	.
.	16G#X\	8ee\L	.	.	.	.	.	.
.	16d\	.	.	.	.	.	.	.
.	16G#\	[8bbJ [>8dd#\	.	.	.	.	.	.
.	16d\JJ	.	.	.	.	.	.	.
=20	=20	=20	=20	=20	=20	=20	=20	=20
*	*	*Xtuplet	*	*	*	*	*	*
4.AA/	16AA\LL	24bb]LL 24dd#\]	.	4.ryy	.	.	4.ryy	.
.	.	24ccc# 24ee\	.	.	.	.	.	.
.	(>16A\	.	.	.	.	.	.	.
!	!	!LO:SIC:v:n=1:s=24gg#	!	!	!	!	!	!
.	.	24ggJJ 24b\	.	.	.	.	.	.
.	16E\	4aa 4cc#\	.	.	.	.	.	.
.	16A\	.	.	.	.	.	.	.
.	16E\	.	.	.	.	.	.	.
.	16A\JJ)	.	.	.	.	.	.	.
=21	=21	=21	=21	=21	=21	=21	=21	=21
.	.	8qff# 8qdd/	.	.	.	.	.	.
4.AA/	16AA\LL	16.eeLL 16.cc#\	.	4.ryy	.	.	4.ryy	.
.	(>16A\	.	.	.	.	.	.	.
!	!	!LO:SIC:v:n=2:s=32b#	!	!	!	!	!	!
.	.	32dd#XJJk 32b\	.	.	.	.	.	.
.	16E\	8eeL 8cc#\	.	.	.	.	.	.
.	16A\	.	.	.	.	.	.	.
.	16E\	[8ccc#J [>8cc#\	.	.	.	.	.	.
.	16A\JJ)	.	.	.	.	.	.	.
=22	=22	=22	=22	=22	=22	=22	=22	=22
4.D/	(>16D\LL	16.ccc#]LL 16.cc#\]	.	4.ryy	.	.	4.ryy	.
.	16B\	.	.	.	.	.	.	.
.	.	32bbJJk 32b\	.	.	.	.	.	.
.	16F#\	8ff#\L	.	.	.	.	.	.
.	16B\	.	.	.	.	.	.	.
.	16F#\	8bb\J	.	.	.	.	.	.
.	16B\JJ)	.	.	.	.	.	.	.
=23	=23	=23	=23	=23	=23	=23	=23	=23
4.E/	(>16E\LL	16.aa\LL	.	4.ryy	.	.	4.ryy	.
.	16d\	.	.	.	.	.	.	.
.	.	32gg#X\K	.	.	.	.	.	.
.	16B\	16.ff#\	.	.	.	.	.	.
.	16d\	.	.	.	.	.	.	.
.	.	32ee\K	.	.	.	.	.	.
.	16B\	16.ff#\	.	.	.	.	.	.
.	16d\JJ)	.	.	.	.	.	.	.
.	.	32gg#\JJk	.	.	.	.	.	.
*v	*v	*	*	*	*	*	*	*
!!LO:LB:g=original
=24	=24	=24	=24	=24	=24	=24	=24
16c# 16A\	16aa\	.	4.ryy	.	.	4.ryy	.
16r	16r	.	.	.	.	.	.
8A 8AA/	8aa 8cc# 8a\	.	.	.	.	.	.
*	*tuplet	*	*	*	*	*	*
!	!LO:TUP:a:problem:łuczek zamiast numeru	!	!	!	!	!	!
8r	(24aa\LL	<	.	.	.	.	.
.	24bb\	.	.	.	.	.	.
.	24ccc#\JJ	[[	.	.	.	.	.
=25	=25	=25	=25	=25	=25	=25	=25
!	!	!LO:DY:rj	!	!	!	!	!
8dL 8A 8F# 8D\	8ddd\L)	f	4.ryy	.	.	4.ryy	.
8d 8A 8F# 8D\	8aa 8ff# 8dd'^<\	.	.	.	.	.	.
8dJ 8B 8G\	8bbJ 8gg 8dd'^<\	.	.	.	.	.	.
=26	=26	=26	=26	=26	=26	=26	=26
*tremolo	*	*	*	*	*	*	*
8dL 8A 8F# 8D\	16.aaLL 16.ff#\|	.	4.ryy	.	.	4.ryy	.
!	!LO:N:vis=16	!	!	!	!	!	!
.	32bbK 32gg\|	.	.	.	.	.	.
8d 8A 8F# 8D\	16.aa 16.ff#\|	.	.	.	.	.	.
!	!LO:N:vis=16	!	!	!	!	!	!
.	32ggJK 32ee\|	.	.	.	.	.	.
8dJ 8A 8F# 8D\	8ff#J 8dd\|	.	.	.	.	.	.
*Xtremolo	*	*	*	*	*	*	*
=27	=27	=27	=27	=27	=27	=27	=27
!	!	!LO:DY:rj	!	!	!	!	!
.	8qff#/	p	.	.	.	.	.
16AA/	16.ee\LL	.	4.ryy	.	.	4.ryy	.
16r	.	.	.	.	.	.	.
.	32a\JJk	.	.	.	.	.	.
8eL 8c# 8A 8G\	8.cc#\L	.	.	.	.	.	.
8eJ 8c# 8A 8G\	.	.	.	.	.	.	.
.	16ee\Jk	.	.	.	.	.	.
!!LO:PB:g=original
=28	=28	=28	=28	=28	=28	=28	=28
*^	*	*	*	*	*	*	*
4.D/	8D\L	16.dd\LL	.	4.ryy	.	.	4.ryy	.
.	.	(32gg\K|	.	.	.	.	.	.
.	8d 8A 8F#\	16.ff#\)	.	.	.	.	.	.
.	.	(32bb\JK|	.	.	.	.	.	.
.	8dJ 8A 8F#\	8aa\J)	.	.	.	.	.	.
*v	*v	*	*	*	*	*	*	*
=29	=29	=29	=29	=29	=29	=29	=29
!	!	!LO:DY:rj	!	!	!	!	!
8dL 8A 8F# 8D\	8dddL 8ff# 8dd'^<\	f	4.ryy	.	.	4.ryy	.
8d 8A 8F# 8D\	8aa 8ff# 8dd'^<\	.	.	.	.	.	.
!LO:TX:t=P:problem:skreślony akord	!LO:SIC:v:n=2:s=8gg#	!	!	!	!	!	!
8dJ 8B 8G#X 8E#X 8D\	8bbJ 8gg 8ee#X 8dd'^<\	.	.	.	.	.	.
=30	=30	=30	=30	=30	=30	=30	=30
*tremolo	*	*	*	*	*	*	*
8dL 8A 8F# 8D\	16.aaLL 16.ff#|\	.	4.ryy	.	.	4.ryy	.
.	32bbK 32gg|\	.	.	.	.	.	.
8d 8A 8F# 8D\	16.aa 16.ff#|\	.	.	.	.	.	.
.	32ggJK 32ee|\	.	.	.	.	.	.
8dJ 8A 8F# 8D\	8ff#J 8dd|\	.	.	.	.	.	.
*Xtremolo	*	*	*	*	*	*	*
=31	=31	=31	=31	=31	=31	=31	=31
.	8qff#/	.	.	.	.	.	.
8G 8GG\	16.ee\LL	.	4.ryy	.	.	4.ryy	.
.	32b\JJk	.	.	.	.	.	.
8eL 8c# 8A\	8cc#\L	.	.	.	.	.	.
8eJ 8c# 8A\	(8ee\J	.	.	.	.	.	.
=32	=32	=32	=32	=32	=32	=32	=32
16f# 16d\	16dd\)	.	4.ryy	.	.	4.ryy	.
16r	16r	.	.	.	.	.	.
8d 8D\	8ddd 8ff# 8dd\	.	.	.	.	.	.
!	!LO:TX:t=P:problem:fermata na kresce taktowej	!	!	!	!	!	!
8r	8r;	.	.	.	.	.	.
!!LO:LB:g=original
*kcancel	*kcancel	*	*kcancel	*	*	*kcancel	*
=33:|!	=33:|!	=33:|!	=33:|!	=33:|!	=33:|!	=33:|!	=33:|!
*>C	*>C	*>C	*>C	*>C	*>C	*>C	*>C
*k[f#]	*k[f#]	*	*k[f#]	*	*	*k[f#]	*
!	!LO:TX:a:t=Trio	!	!	!	!	!	!
!LO:TX:t=P:problem:kolejność znaków Cn F#	!LO:TX:t=P:problem:kolejność znaków ccn f#	!LO:DY:rj	!	!	!	!	!
16.GLL 16.D 16.GG\	16.gLL 16.d 16.B/	fp	4.ryy	.	.	4.ryy	.
32GJJk 32D 32GG\	32gJJk 32d 32B/	.	.	.	.	.	.
8GL 8D 8GG\	8gL 8d 8B/	.	.	.	.	.	.
8GJ 8D 8GG\	8gJ 8d 8B/	.	.	.	.	.	.
=34	=34	=34	=34	=34	=34	=34	=34
*tremolo	*tremolo	*	*	*	*	*	*
8GL 8D 8GG\	8gL 8d 8B/	.	4.ryy	.	.	4.ryy	.
8G 8D 8GG\	8g 8d 8B/	.	.	.	.	.	.
8GJ 8D 8GG\	8gJ 8d 8B/	.	.	.	.	.	.
*Xtremolo	*Xtremolo	*	*	*	*	*	*
!!LO:LB:g=original
=35	=35	=35	=35	=35	=35	=35	=35
*^	*	*	*	*	*	*	*
!	!	!	!LO:DY:rj	!	!	!	!	!
4.GG/	16GG\LL	16.ggLL 16.b 16.g\	p	16.g/	2.)_Te-	3.)_Kto	16.b\	1.)_Hołd
.	(>16D\	.	.	.	.	.	.	.
.	.	32aaJJk 32cc 32a\	.	32a/	-mu	pię-	32cc\	swej
.	16G\	8.bbL 8.dd 8.b\	.	8.b/	co	-dzie-	8.dd\	czci
.	16D\	.	.	.	.	.	.	.
.	16G\	.	.	.	.	.	.	.
.	16D\JJ)	16aa#XJk 16cc#X 16a#X\	.	16a#X/	Kra-	-siąt	16cc#X\	ni-
=36	=36	=36	=36	=36	=36	=36	=36	=36
4.GG/	(>16GG\LL	16.bbLL 16.dd 16.b\	.	16.b/	-jo-	lat	16.dd\	-są
.	16D\	.	.	.	.	.	.	.
.	.	32aa#XJJk 32cc#X 32a#X\	.	32a#X/	-wi	z_ho-	32cc#X\	ro-
.	16G\	8bbL 8dd 8b\	.	8b/	szcze-	-no-	8dd\	-da-
.	16D\	.	.	.	.	.	.	.
.	16G\	8ggJ 8b 8g\	.	8g/	-rze	-rem	8b\	-cy,
.	16D\JJ)	.	.	.	.	.	.	.
=37	=37	=37	=37	=37	=37	=37	=37	=37
4.GG/	(>16GG\LL	16.bbLL 16.dd 16.b\	.	16.b/	Za-	Tak	16.dd\	Niech
.	16D\	.	.	.	.	.	.	.
.	.	32aanJJk 32ccn 32an\	.	32an/	-wsze	pra-	32ccn\	nam
.	16A\	8ff#L 8a 8f#\	.	8f#/	u-	-co-	8a\	dłu-
.	16D\	.	.	.	.	.	.	.
.	16A\	8aaJ 8cc 8a\	.	8a/	-miał	-wał	8cc\	-go
.	16D\JJ)	.	.	.	.	.	.	.
=38	=38	=38	=38	=38	=38	=38	=38	=38
4.GG/	(>16GG\LL	16.cccLL 16.ee 16.cc\	.	16.cc\	po-	i	16.ee\	ży-
.	16D\	.	.	.	.	.	.	.
.	.	32bbJJk 32dd 32b\	.	32b\	-moc	tak	32dd\	-je
.	16G\	8gg 8b 8g\	.	8g/	nieść	żył	8b\	Mąż
.	16D\	.	.	.	.	.	.	.
.	16G\	8r	.	8r	.	.	8r	.
.	16D\JJ)	.	.	.	.	.	.	.
!!LO:LB:g=original
=39	=39	=39	=39	=39	=39	=39	=39	=39
4.GG/	(>16GG\LL	16.ggLL 16.b 16.g\	.	16.g/	Co	Że	16.b\	Co
.	16D\	.	.	.	.	.	.	.
.	.	32aaJJk 32cc 32a\	.	32a/	wśród	dla	32cc\	się
.	16G\	8.bbL 8.dd 8.b\	.	8.b/	bu-	swych	8.dd\	Kra-
.	16D\	.	.	.	.	.	.	.
.	16G\	.	.	.	.	.	.	.
.	16D\JJ)	16aa#XJk 16cc#X 16a#X\	.	16a#X/	-rzy	Kol-	16cc#X\	-jem
=40	=40	=40	=40	=40	=40	=40	=40	=40
*rep	*rep	*	*	*	*	*	*	*
4.GG/	(>16GG\LL	16.bbLL 16.dd 16.b\	.	16.b/	stał	-le-	16.dd\	swym
.	16D\	.	.	.	.	.	.	.
.	.	32aa#XJJk 32cc#X 32a#X\	.	32a#X/	przy	-gów	32cc#X\	wśród
.	16G\	8bbL 8dd 8b\	.	8b/	ste-	wzo-	8dd\	pra-
.	16D\	.	.	.	.	.	.	.
.	16G\	8ggJ 8b 8g\	.	8g/	-rze	-rem,	8b\	-cy
.	16D\JJ)	.	.	.	.	.	.	.
*Xrep	*Xrep	*	*	*	*	*	*	*
*v	*v	*	*	*	*	*	*	*
=41	=41	=41	=41	=41	=41	=41	=41
8C 8CC/	16.aaLL 16.a\	.	16.a/	Te-	Dla	16.a\	szcze-
.	32eeeJJk 32ee\	.	32e/	-mu	pod-	32ee\	-rze
8cL 8A 8F# 8D\	8dddL 8dd\	.	8d/	chwa-	-wład-	8dd\	o-
8cJ 8A 8F# 8D\	8ff#J 8f#\	.	8f#/	-ła	-nych	8f#/	-pie-
=42	=42	=42	=42	=42	=42	=42	=42
!	!LO:TX:t=P:problem:dwa łuki od góry	!	!	!	!	!	!
.	(8qa (8qaa/	.	8qa/	.	.	8qa/	.
16GG/	16.ggLL) 16.g\)	.	16.g/	te-	Oj-	16.g/	-ko-
16r	.	.	.	.	.	.	.
.	32ff#JJk 32f#\	.	32f#/	-mu	-cem	32f#/	-wał
8B 8G 8D\	8gg 8g\	.	8g/	cześć	był	8g/	wciąż
8r	8r	.	8r	.	.	8r	.
!!LO:PB:g=original
=43:|!	=43:|!	=43:|!	=43:|!	=43:|!	=43:|!	=43:|!	=43:|!
*>D	*>D	*>D	*>D	*>D	*>D	*>D	*>D
*^	*	*	*	*	*	*	*
!	!	!	!LO:DY:rj	!	!	!	!	!
4.D#X/	8D#\L	16.bbLL 16.b\	p	16.d#X/	Tak	Nie-	16.b/	Niech
.	.	32bbJJk 32b\	.	32d#/	na	-chaj	32b/	przez
.	8B 8F#\	8bbL 8b\	.	8d#/	Je-	ta-	8b/	sze-
.	8BJ 8F#\	8ff#J 8f#\	.	8d#/	-go	-ki	8f#/	-reg
=44	=44	=44	=44	=44	=44	=44	=44	=44
.	.	8qaa 8qa/	.	.	.	.	(8qa/	.
4.E/	8E\L	16.ggLL 16.g\	.	16.e/	chwa-	Ju-	16.g/)	licz-
.	.	32ff#JJk 32f#\	.	32d#X/	-łę	-bi-	32f#/	nych
.	8B 8G\	8gg 8g\	.	8e/	cześć	-lat	8g/	lat
.	8BJ 8G\	8r	.	8r	.	.	8r	.
=45	=45	=45	=45	=45	=45	=45	=45	=45
4.F#/	8F#\L	16.dddLL 16.dd\	.	16.f#/	Spiesz-	Ży-	16.dd\	Ży-
.	.	32dddJJk 32dd\	.	32f#/	-my	-je	32dd\	-je
.	8d 8A\	8dddL 8dd\	.	8f#/	wszy-	ie-	8dd\	za-
.	8dJ 8A\	8aaJ 8a\	.	8f#/	-scy	-szcze	8a/	-cny
=46	=46	=46	=46	=46	=46	=46	=46	=46
.	.	(<8qccc 8qcc/	.	.	.	.	(8qcc/	.
4.G/	8G\L	16.bbLL 16.b\)	.	16.g/	pu-	ze	16.b/)	Ju-
.	.	32aa#XJJk 32a#X\	.	32f#/	-har	sto-	32a#X/	-bi-
.	8d 8B\	8bb 8b\	.	8g/	wznieść	-lat	8b/	-lat
.	8dJ 8B\	8r	.	8r	.	.	8r	.
*v	*v	*	*	*	*	*	*	*
!!LO:LB:g=original
=47	=47	=47	=47	=47	=47	=47	=47
16C 16CC/	16aa 16a\	<	8c/	Wi-	Wi-	8a/	Wi-
16r	16r	.	.	.	.	.	.
4A 4E 4C/	4eee 4ee^<\	.	4c/	-wat!	-wat!	4ee^\	-wat!
=48	=48	=48	=48	=48	=48	=48	=48
*	*	*	*	*	*ij	*	*
16C#X 16CC#X/	16aa#X 16a#X\	.	8c#X/	Wi-	Wi-	8a#X/	Wi-
16r	16r	.	.	.	.	.	.
4A#X 4G 4E 4C#/	4eee 4ee^<\	.	4c#/	-wat!	-wat!	4ee^\	-wat!
*	*	*	*	*	*Xij	*	*
=49	=49	=49	=49	=49	=49	=49	=49
!	!	!LO:DY:rj	!	!	!	!	!
16D 16DD/	16.dddLL 16.dd\	f	16.d/	Spiesz-	Ży-	16.dd\	Niech
16r	.	.	.	.	.	.	.
.	32dddJJk 32dd\	.	32d/	-my	-je	32dd\	nam
8BL 8G 8D\	8dddL 8dd\	.	8d/	wszy-	ie-	8dd\	ży-
8cJ 8A 8D\	8ff#J 8f#\	.	8f#/	-scy	-szcze	8f#/	-je
=50	=50	=50	=50	=50	=50	=50	=50
!	!LO:TX:t=P:problem:dwa łuki od góry	!	!	!	!	!	!
.	(8qaa (8qa/	.	(8qa/	.	.	8qa/	.
16B 16G\	16.ggLL 16.g\))	.	16.g/)	pu-	ze	16.g/	Ju-
16r	.	.	.	.	.	.	.
.	32ff#JJk 32f#\	.	32f#/	-har	sto	32f#/	-bi-
8B 8G\	8gg 8g\	.	8g/	wznieść	lat.	8g/	-lat.
!LO:TX:b:t=po Trio\npowtarza się Mazur\ndo fine	!	!	!	!	!	!	!
8r	8r	.	8r	.	.	8r	.
=:|!	=:|!	=:|!	=:|!	=:|!	=:|!	=:|!	=:|!
*-	*-	*-	*-	*-	*-	*-	*-
!!!system-decoration: {s1,s2}{(p3)}
!!!RDF**kern: > = above
!!!RDF**kern: < = below
!!!RDF**kern: | = vertical stroke
!!!ENC: Andrzej Kubiczek
!!!END: 2021-05-06
!!!ENC: Marcin Jachim
!!!END: 2021-04-24
